public/avatar/shoe/61.svg

<svg xmlns:xlink="http://www.w3.org/1999/xlink" height="38.3" width="36.05" xmlns="http://www.w3.org/2000/svg"><use height="18.5" transform="translate(8.65 10.7)" width="23.6" xlink:href="#a"/><defs><g id="a"><path d="M16.75 1.9q-.9-1-2.65-.9-1.75.1-2.05 1.2l-.95-.05q-2 0-2.5 1.75-.75-.95-2.1.4-1.35 1.2-1.45 2.35l-1.1.9Q0 10.25 1.3 12.4q.35.6 1.3.85v.05h.1q-.4 2 2 2.25l.75.1.15.05-.05-.05h.05v.05q-.1 1.6 2.75 1.75l.4.05q1.9.15 3.35-.85l3.75-1.35 3.1-1.25 1-.35q1.8-.9 1.65-3.55 1.05-1.25 1-2.5-.1-1.5-2.05-1.5.95-1.65-.25-2.75-1.05-1-2.5-.5h-.25l-.25-.15-.25-.55-.3-.3Z" fill="none" stroke="#000" stroke-linecap="round" stroke-linejoin="round" stroke-width="2"/><path d="M4.75 9.55q-2.35 1.1-8.15 1.6l-7.1.25q-1.75-.1-2.05-1.2l.05-1.05-1.35-.95q-1.3-2.1 2.6-4.8 7.7-6 12.1-5.25 3.75.65 5.25 5.4 1.4 4.65-1.35 6" fill="#eaa73e" fill-rule="evenodd" transform="translate(15.15 4.15)"/><path d="M-6.55-.3q.3-1.05 1.45-1.5l1.95-.05q.3-1.35 2.5-1.35Q1.5-3.15 2-1.6L.85.4Q.1 1.65-4.25 2.65l-3.8.15-2-.1q-.35-1 1.4-2.55Q-7.3-1.2-6.55-.3M5-.9q1.45 1.05.35 2.85 2 0 2.05 1.6.05 1.25-1 2.5-.55.6-1.2.35l-1.55-.7Q.75 4.9.25 2.55l1.85-3.6L5-.9M4.15 9.75q-1.25.8-3.45 1.4l-4.25 1.45q-3 1.25-4.9.3-1.85-.85-.85-2L4.15 9.75" fill="#eaa73e" fill-rule="evenodd" transform="translate(15.15 4.15)"/><path d="M-7.1 11.15Q-6 9.05-3.9 8.9q1.55 0 1.9 1.3.35.95-.35 1.65-1.45 1.6-4.05 1.5-1.65 0-.7-2.2" fill="#c99036" fill-rule="evenodd" transform="translate(15.15 4.15)"/><path d="m-9.55 11.55-.2-.1q-1.5-.9-.9-1.8l1.1-1.05.95-.4q.5-.35.75-.35l-1.4 1.7q-.6 1.8-.3 2m-2.95-2.4h-.05l-.45-.8q-.25-.55.2-1.2l1-.95 1.9-.05q-2.5 1.4-2.6 3" fill="#9b6f29" fill-rule="evenodd" transform="translate(15.15 4.15)"/><path d="M.4-2.9q1.1.45 1.5.95l.45.65 1-.05q2.75.15 1.85 2.8-.25.6 0 .7l1.05.15q1.15.35 1.15 1.15l-.65 1.9-.4.8-.1.95Q3.9 6.4 3.1 4.65q-.15-1.55-.75-2l-1-.55-.85-.2-.25-.5Q.1.8-.85.35l-2 .05q-.5-1.75-2.25-1.5l-1.15.2.45-.75 2.25-.3q.45.05.95-.45 1.25-1.15 3-.5" fill="#c99036" fill-rule="evenodd" transform="translate(15.15 4.15)"/></g></defs></svg>

<?xml version="1.0" encoding="UTF-8" standalone="no"?>
<svg xmlns:xlink="http://www.w3.org/1999/xlink" height="38.3px" width="36.05px" xmlns="http://www.w3.org/2000/svg">
  <g transform="matrix(1.0, 0.0, 0.0, 1.0, 23.8, 14.85)">
    <use height="18.5" transform="matrix(1.0, 0.0, 0.0, 1.0, -15.15, -4.15)" width="23.6" xlink:href="#shape0"/>
  </g>
  <defs>
    <g id="shape0" transform="matrix(1.0, 0.0, 0.0, 1.0, 15.15, 4.15)">
      <path d="M1.6 -2.25 Q0.7 -3.25 -1.05 -3.15 -2.8 -3.05 -3.1 -1.95 L-4.05 -2.0 Q-6.05 -2.0 -6.55 -0.25 -7.3 -1.2 -8.65 0.15 -10.0 1.35 -10.1 2.5 L-11.2 3.4 Q-15.15 6.1 -13.85 8.25 -13.5 8.85 -12.55 9.1 L-12.55 9.15 -12.45 9.15 Q-12.85 11.15 -10.45 11.4 L-9.7 11.5 -9.55 11.55 -9.6 11.5 -9.55 11.5 -9.55 11.55 Q-9.65 13.15 -6.8 13.3 L-6.4 13.35 Q-4.5 13.5 -3.05 12.5 L0.7 11.15 3.8 9.9 4.8 9.55 Q6.6 8.65 6.45 6.0 7.5 4.75 7.45 3.5 7.35 2.0 5.4 2.0 6.35 0.35 5.15 -0.75 4.1 -1.75 2.65 -1.25 L2.4 -1.25 2.15 -1.4 1.9 -1.95 1.6 -2.25 Z" fill="none" stroke="#000000" stroke-linecap="round" stroke-linejoin="round" stroke-width="2.0"/>
      <path d="M4.75 9.55 Q2.4 10.65 -3.4 11.15 L-10.5 11.4 Q-12.25 11.3 -12.55 10.2 L-12.5 9.15 -13.85 8.2 Q-15.15 6.1 -11.25 3.4 -3.55 -2.6 0.85 -1.85 4.6 -1.2 6.1 3.55 7.5 8.2 4.75 9.55" fill="#eaa73e" fill-rule="evenodd" stroke="none"/>
      <path d="M-6.55 -0.3 Q-6.25 -1.35 -5.1 -1.8 L-3.15 -1.85 Q-2.85 -3.2 -0.65 -3.2 1.5 -3.15 2.0 -1.6 L0.85 0.4 Q0.1 1.65 -4.25 2.65 L-8.05 2.8 -10.05 2.7 Q-10.4 1.7 -8.65 0.15 -7.3 -1.2 -6.55 -0.3" fill="#eaa73e" fill-rule="evenodd" stroke="none"/>
      <path d="M5.0 -0.9 Q6.45 0.15 5.35 1.95 7.35 1.95 7.4 3.55 7.45 4.8 6.4 6.05 5.85 6.65 5.2 6.4 L3.65 5.7 Q0.75 4.9 0.25 2.55 L2.1 -1.05 5.0 -0.9" fill="#eaa73e" fill-rule="evenodd" stroke="none"/>
      <path d="M4.15 9.75 Q2.9 10.55 0.7 11.15 L-3.55 12.6 Q-6.55 13.85 -8.45 12.9 -10.3 12.05 -9.3 10.9 L4.15 9.75" fill="#eaa73e" fill-rule="evenodd" stroke="none"/>
      <path d="M-7.1 11.15 Q-6.0 9.05 -3.9 8.9 -2.35 8.9 -2.0 10.2 -1.65 11.15 -2.35 11.85 -3.8 13.45 -6.4 13.35 -8.05 13.35 -7.1 11.15" fill="#c99036" fill-rule="evenodd" stroke="none"/>
      <path d="M-9.55 11.55 L-9.75 11.45 Q-11.25 10.55 -10.65 9.65 L-9.55 8.6 -8.6 8.2 Q-8.1 7.85 -7.85 7.85 L-9.25 9.55 Q-9.85 11.35 -9.55 11.55" fill="#9b6f29" fill-rule="evenodd" stroke="none"/>
      <path d="M-12.5 9.15 L-12.55 9.15 -13.0 8.35 Q-13.25 7.8 -12.8 7.15 L-11.8 6.2 -9.9 6.15 Q-12.4 7.55 -12.5 9.15" fill="#9b6f29" fill-rule="evenodd" stroke="none"/>
      <path d="M0.4 -2.9 Q1.5 -2.45 1.9 -1.95 L2.35 -1.3 3.35 -1.35 Q6.1 -1.2 5.2 1.45 4.95 2.05 5.2 2.15 L6.25 2.3 Q7.4 2.65 7.4 3.45 L6.75 5.35 6.35 6.15 6.25 7.1 Q3.9 6.4 3.1 4.65 2.95 3.1 2.35 2.65 L1.35 2.1 0.5 1.9 0.25 1.4 Q0.1 0.8 -0.85 0.35 L-2.85 0.4 Q-3.35 -1.35 -5.1 -1.1 L-6.25 -0.9 -5.8 -1.65 -3.55 -1.95 Q-3.1 -1.9 -2.6 -2.4 -1.35 -3.55 0.4 -2.9" fill="#c99036" fill-rule="evenodd" stroke="none"/>
    </g>
  </defs>
</svg>
